X:14689
T:Ryan's, Sean
M:6/8
L:1/8
K:A Dorian
B|AGE EDE|GAB cBA|GDB, G,B,D|GAB cBc|!
AGE EDE|GAB c2d|eag edB|cAA A2:|!
B|cBA a3|bag edB|GBd gfg|age dBG|!
ABA a3|bag edB|GBd gfg|edB A2:|!


